X: 5683
T: Byrne's Mill
R: slip jig
M: 9/8
K: Dmajor
e|dcA G2 A FDD|GFG A/A/AG ABc|dcA G2 A FDD|dB/c/d edc dfe|
dcA G2 A FDD|GFG A/A/AG AA/B/c|dcA G2 A FDD|dB/c/d edc dcB||
A2 d dAd fga|g2 g afd cAG|A/A/Ad dAd fga|g2 f edc d2 B|
A2 d dAd fga|gfg afd cAG|A/A/Ad dAd fga|g2 f edc d2 e||
f/f/fg e/e/ef dcA|dcA cAG FGA|f/f/fd edc AA/b/c|dB/c/d edc d2 e|
f/f/fg e/e/ef dcA|dcA G2 A FDD|f/f/fd edc dcA|dcA GEA D2||

